Simply black circles/symbolic/status/dialog-password-symbolic.svg

<?xml version="1.0" encoding="UTF-8" standalone="no"?>
<!-- Created with Inkscape (http://www.inkscape.org/) -->

<svg
   xmlns:dc="http://purl.org/dc/elements/1.1/"
   xmlns:cc="http://creativecommons.org/ns#"
   xmlns:rdf="http://www.w3.org/1999/02/22-rdf-syntax-ns#"
   xmlns:svg="http://www.w3.org/2000/svg"
   xmlns="http://www.w3.org/2000/svg"
   xmlns:xlink="http://www.w3.org/1999/xlink"
   xmlns:sodipodi="http://sodipodi.sourceforge.net/DTD/sodipodi-0.dtd"
   xmlns:inkscape="http://www.inkscape.org/namespaces/inkscape"
   id="svg3334"
   width="24"
   height="24"
   version="1.0"
   sodipodi:docname="dialog-password-symbolic.svg"
   inkscape:version="0.92.3 (2405546, 2018-03-11)">
  <metadata
     id="metadata40">
    <rdf:RDF>
      <cc:Work
         rdf:about="">
        <dc:format>image/svg+xml</dc:format>
        <dc:type
           rdf:resource="http://purl.org/dc/dcmitype/StillImage" />
        <dc:title></dc:title>
      </cc:Work>
    </rdf:RDF>
  </metadata>
  <sodipodi:namedview
     pagecolor="#ffffff"
     bordercolor="#666666"
     borderopacity="1"
     objecttolerance="10"
     gridtolerance="10"
     guidetolerance="10"
     inkscape:pageopacity="0"
     inkscape:pageshadow="2"
     inkscape:window-width="1366"
     inkscape:window-height="719"
     id="namedview38"
     showgrid="false"
     inkscape:zoom="11.083334"
     inkscape:cx="-6.7218034"
     inkscape:cy="11.639098"
     inkscape:window-x="0"
     inkscape:window-y="25"
     inkscape:window-maximized="1"
     inkscape:current-layer="svg3334"
     inkscape:snap-global="true"
     showguides="true"
     inkscape:guide-bbox="true" />
  <defs
     id="defs3336">
    <linearGradient
       id="linearGradient2877"
       x1="25.058001"
       x2="25.058001"
       y1="47.028"
       y2="39.999001"
       gradientUnits="userSpaceOnUse">
      <stop
         id="stop3704"
         style="stop-opacity:0"
         offset="0" />
      <stop
         id="stop3710"
         offset=".5" />
      <stop
         id="stop3706"
         style="stop-opacity:0"
         offset="1" />
    </linearGradient>
    <radialGradient
       id="radialGradient2875"
       cx="4.993"
       cy="43.5"
       r="2.5"
       gradientTransform="matrix(2.0038,0,0,1.4,-20.012,-104.4)"
       gradientUnits="userSpaceOnUse"
       xlink:href="#linearGradient3688" />
    <linearGradient
       id="linearGradient3688">
      <stop
         id="stop3690"
         offset="0" />
      <stop
         id="stop3692"
         style="stop-opacity:0"
         offset="1" />
    </linearGradient>
    <radialGradient
       id="radialGradient2873"
       cx="4.993"
       cy="43.5"
       r="2.5"
       gradientTransform="matrix(2.0038,0,0,1.4,27.988,-17.4)"
       gradientUnits="userSpaceOnUse"
       xlink:href="#linearGradient3688" />
    <linearGradient
       id="linearGradient2865"
       x1="24"
       x2="24"
       y1="44"
       y2="3.8989999"
       gradientTransform="translate(0,0.96744)"
       gradientUnits="userSpaceOnUse">
      <stop
         id="stop2492"
         style="stop-color:#791235"
         offset="0" />
      <stop
         id="stop2494"
         style="stop-color:#dd3b27"
         offset="1" />
    </linearGradient>
    <radialGradient
       id="radialGradient2863"
       cx="12.011"
       cy="10.424"
       r="20"
       gradientTransform="matrix(5.6342e-8,1.6801,-2.4235,1.0381e-8,44.478,-5.9267)"
       gradientUnits="userSpaceOnUse">
      <stop
         id="stop3244"
         style="stop-color:#f89b7e"
         offset="0" />
      <stop
         id="stop3246"
         style="stop-color:#e35d4f"
         offset=".26238" />
      <stop
         id="stop3248"
         style="stop-color:#c6262e"
         offset=".66094" />
      <stop
         id="stop3250"
         style="stop-color:#690b2c"
         offset="1" />
    </radialGradient>
    <linearGradient
       id="linearGradient2855"
       x1="24"
       x2="24"
       y1="5"
       y2="43"
       gradientTransform="translate(0,0.96744)"
       gradientUnits="userSpaceOnUse">
      <stop
         id="stop3310-1-4"
         style="stop-color:#fff"
         offset="0" />
      <stop
         id="stop3312-5-3"
         style="stop-color:#fff;stop-opacity:0"
         offset="1" />
    </linearGradient>
  </defs>
  <path
     style="fill:#808080;stroke:none;stroke-width:1px;stroke-linecap:butt;stroke-linejoin:miter;stroke-opacity:1;fill-opacity:1"
     d="M 12 0.15820312 A 11.84323 11.84323 0 0 0 0.15625 12.001953 A 11.84323 11.84323 0 0 0 12 23.841797 A 11.84323 11.84323 0 0 0 23.84375 12.001953 A 11.84323 11.84323 0 0 0 12 0.15820312 z M 11.966797 1.9179688 A 10.181907 10.181907 0 0 1 14.201172 2.1738281 L 2.0429688 14.332031 A 10.181907 10.181907 0 0 1 1.7832031 12.101562 A 10.181907 10.181907 0 0 1 11.966797 1.9179688 z M 14.630859 5.0996094 C 16.892117 5.0996094 18.720703 6.9282169 18.720703 9.1894531 C 18.720703 11.450688 16.892117 13.277344 14.630859 13.277344 C 14.101645 13.277344 13.620516 13.181403 13.1875 13.037109 L 11.023438 15.203125 L 9.5800781 15.203125 L 9.5800781 16.646484 L 8.1367188 16.646484 L 8.1367188 18.089844 L 5.7304688 18.089844 L 5.7304688 15.683594 L 10.78125 10.630859 C 10.636926 10.149749 10.541016 9.6705623 10.541016 9.1894531 C 10.541016 6.9282169 12.369627 5.0996094 14.630859 5.0996094 z M 15.833984 6.5429688 C 15.016073 6.5429687 14.390625 7.168419 14.390625 7.9863281 C 14.390625 8.804237 15.016073 9.4296875 15.833984 9.4296875 C 16.651894 9.4296875 17.277344 8.804237 17.277344 7.9863281 C 17.277344 7.168419 16.651894 6.5429688 15.833984 6.5429688 z M 21.78125 9.390625 A 10.181907 10.181907 0 0 1 22.148438 12.101562 A 10.181907 10.181907 0 0 1 11.966797 22.285156 A 10.181907 10.181907 0 0 1 9.2636719 21.908203 L 21.78125 9.390625 z "
     id="path846" />
</svg>

<svg xmlns="http://www.w3.org/2000/svg" width="24" height="24" version="1"><defs><linearGradient id="a"><stop offset="0"/><stop offset="1" stop-opacity="0"/></linearGradient></defs><path d="M12 .158A11.843 11.843 0 0 0 .156 12.002 11.843 11.843 0 0 0 12 23.842a11.843 11.843 0 0 0 11.844-11.84A11.843 11.843 0 0 0 12 .158zm-.033 1.76a10.182 10.182 0 0 1 2.234.256L2.043 14.332a10.182 10.182 0 0 1-.26-2.23A10.182 10.182 0 0 1 11.967 1.918zM14.63 5.1a4.087 4.087 0 0 1 4.09 4.09 4.085 4.085 0 0 1-4.09 4.087c-.53 0-1.01-.096-1.444-.24l-2.164 2.166H9.58v1.443H8.137v1.444H5.73v-2.406l5.051-5.053c-.144-.481-.24-.96-.24-1.442a4.087 4.087 0 0 1 4.09-4.09zm1.203 1.443c-.818 0-1.443.625-1.443 1.443 0 .818.625 1.444 1.443 1.444.818 0 1.443-.626 1.443-1.444s-.625-1.443-1.443-1.443zm5.947 2.848a10.182 10.182 0 0 1 .367 2.71 10.182 10.182 0 0 1-10.181 10.184 10.182 10.182 0 0 1-2.703-.377L21.78 9.391z" fill="gray"/></svg>
